X: 22663
T: Lakes Of Killarney
R: hornpipe
M: 4/4
K: Gmajor
|:G2BG DGBd|cAfd cAFA|BGBd cdeg|afdB cAFA|
B3d c3A|BGEG ABcA|fafd cAFG|AAGF G4:|
|:B2G2 Bcdg|f3g afdc|dg3 agba|gfdB c3d|
B2GB c3A|BdGA BGfd|BAGE fdcA|G2FA G4:|

